build/images/icon-text.svg

<svg width="21" height="20" viewBox="0 0 21 20" fill="none" xmlns="http://www.w3.org/2000/svg">
<path d="M0.0489842 5.9242H20.0979V8.78835H0.0489842V5.9242Z" fill="#025BB1"/>
<path d="M0.0489842 11.8484H20.0979V14.7125H0.0489842V11.8484Z" fill="#025BB1"/>
<path d="M0 17.1358H14.3207V20H0V17.1358Z" fill="#025BB1"/>
<path d="M0.0489842 0H20.0979V2.86415H0.0489842V0Z" fill="#025BB1"/>
</svg>

<svg width="21" height="20" fill="none" xmlns="http://www.w3.org/2000/svg"><path d="M.049 5.924h20.049v2.864H.049V5.924zm0 5.924h20.049v2.864H.049v-2.864zM0 17.136h14.32V20H0v-2.864zM.049 0h20.049v2.864H.049V0z" fill="#025BB1"/></svg>
